!!!OTL: 1261. Birnbaum (Zaehlgeschichte).
!!!ARE: Europa, Mitteleuropa, Deutschland, Hessen, Darmstadt
!!!SCT: K1261
!!!YEM: Copyright 1995, estate of Helmut Schaffrath.
**kern	**text
*clefG2	*
!! Mixed meters:  6/8; 3/8
*M6/8	*
*k[f#]	*
*G:	*
=1	=1
!LO:TX:a:t=I.	!
{8.g	1._Dro-
16f#	-ben
8g	auf
8a	grü-
8g	-ner
8a	Wald-
=2	=2
4.b}	-heid,
{4.dd	da
=3	=3
*M3/8	*
8b	ſteht
8b	ein
16a	ſchö-
16a	-ner
=4	=4
8b/	Birnbaum,
8b/}	.
{16a	ſchöner
16a	.
=5	=5
8b	Birnbaum
8b	.
8a	trägt
=6	=6
4g;}	Laub.
=||	=||
!LO:TX:a:t=II.	!
{8d	2._Was
=7	=7
*M6/8	*
8.g	iſt
16f#	an
8g	dem-
8a	-ſel-
8g	-bi-
8a	-gen
=8	=8
4.b	Baum?
4r}	.
{16gL	ein
16bJ	.
=9	=9
4dd	wun-
8dd	-der-
4cc	-ſchö-
8dd	-ner
=10	=10
4b	Aſt.
8r	.
4r	.
8r}	.
=11	=11
*M3/8	*
{8b	Aſt
8b	am
8a	Baum,
=12	=12
!LO:TX:a:t=NB.*	!
8b/	Baum
16b/	in
16b/	der
8a}	Erd!
=13	=13
*M6/8	*
{8.g	1._Dro-
16f#	-ben
8g	auf
8a	grü-
8g	-ner
8a	Wald-
=14	=14
4.b}	-heid,
{4.dd	da
=15	=15
*M3/8	*
8b	ſteht
8b	ein
16a	ſchö-
16a	-ner
=16	=16
8b/	Birnbaum,
8b/}	.
{16a	ſchöner
16a	.
=17	=17
8b	Birnbaum
8b	.
8a	trägt
=18	=18
4.g;}	Laub.
==	==
!!!AGN: Kinder - Lied, Zaehl - Geschichte
!!!ONB: ESAC (Essen Associative Code) Database: KINDER
!!!AMT: irregular
!!!AIN: vox
!!!EED: Helmut Schaffrath
!!!EEV: 1.0
!!Aus Hessen-Darmstadt, der Pfalz und Thueringen.
!!!GTL: VIII. Lustige geschichten. [Thiermaerchen, Neck- und Luegenmaerchen und Zaehlgeschichten.]
!!@@COMMENT:"*Der Schlußtakt wird in den folgenden Strophen ſoviel Mal wiederholt, als es der Ʒuwachs im Texte verlangt.
!!Erk, Voltslieder J6. 40. Derſ. III. 1, 14 (, Draußen auf grüniger (grünigſter) Haid', da ſteht ein ſchöner Birnbaum, trägt Laub"). Büſching, Wöchentl. Nachrichten"
!!@@END:
!!!URL-scan: https://archive.org/details/DeutschesKinderliedUndKinderspiel/page/266/mode/1up
!!!ENC: Anna Maria Matuszewska
!!!EEV: 2024/02/09
*-	*-
